icons/car-21.svg

<svg xmlns="http://www.w3.org/2000/svg" viewBox="0 0 21 21"><path d="M18.476 6.998H17.04l-1.133-2.713A1.898 1.898 0 0 0 14 2.998H6.994a1.907 1.907 0 0 0-1.908 1.287L3.95 6.998H2.524A.526.526 0 0 0 2 7.522v.476a1 1 0 0 0 1 1v6a1 1 0 0 0 1 1h1a1 1 0 0 0 1-1v-1h9v1a1 1 0 0 0 1 1h1a1 1 0 0 0 1-1v-6a1 1 0 0 0 1-1v-.476a.526.526 0 0 0-.524-.524zm-12.976 5a1.5 1.5 0 1 1 1.5-1.5 1.493 1.493 0 0 1-1.5 1.5zm.5-5h-.76L6.333 4.43c.127-.403.203-.432.668-.432h7.04c.458 0 .655.03.788.432l1.207 2.568H6zm11 3.5a1.5 1.5 0 1 1-1.493-1.5 1.501 1.501 0 0 1 1.493 1.5z"/></svg>

<svg xmlns="http://www.w3.org/2000/svg" viewBox="0 0 21 21"><path d="M18.476 7H17.04l-1.133-2.713A1.898 1.898 0 0 0 14 3H6.994a1.907 1.907 0 0 0-1.908 1.287L3.95 7H2.524A.526.526 0 0 0 2 7.524V8a1 1 0 0 0 1 1v6a1 1 0 0 0 1 1h1a1 1 0 0 0 1-1v-1h9v1a1 1 0 0 0 1 1h1a1 1 0 0 0 1-1V9a1 1 0 0 0 1-1v-.476A.526.526 0 0 0 18.476 7zM5.5 12A1.5 1.5 0 1 1 7 10.5 1.493 1.493 0 0 1 5.5 12zM6 7h-.76l1.092-2.568C6.459 4.029 6.535 4 7 4h7.04c.458 0 .655.03.788.432L16.035 7zm11 3.5A1.5 1.5 0 1 1 15.507 9 1.501 1.501 0 0 1 17 10.5z"/></svg>
